X:1
T:Title
%%score { ( 1 4 ) | ( 2 3 ) }
L:1/8
M:6/4
K:D
V:1 treble nm="Grand Piano"
V:4 treble 
V:2 bass 
V:3 bass 
V:1
 z6 z4[Q:1/4=100] [FA]2 | [Fd]2 [Gc]2 [GB]2 [FA]2 [GB]2 [DF]2 | [FA]2 A2 [CEA]2 [DFA]4 [DFA]2 | %3
 [DFA]2 [DGB]2 [DFA]2 [CEG]2 [A,DF]2 [A,CE]2 | [A,DF]6- [A,DF]4 [DFA]2 | %5
 [DGB]2 [DGB]2 [DGB]2 [Be]2 [Bd]2 [GB]2 | [FA]2 [FA]2 [FA]2 [Fd]2 [FA]2 F2 | E4 A2 B4 ^G2 | %8
 [CA]12 | d6 c6 | B6 z6 | [DFA]2 [FA]2 [FA]2 [DGB]2 [FA]2 [DF]2 | [DFA]4 [EA]2 .[DFA]6 | %13
 [EG]6 [CE]6 | [Ac]4- [DAc]2 [CGB]6 | [DFA]2 [DGB]2 [DFA]2 [DFA]4 [A,EG]2 | [A,DF]12 | .[FA]6 c6 | %18
 B6 A6 | [DFA]2 [FA]2 [FA]2 [DGB]2 [FA]2 [DF]2 | [DFA]4 [EA]2 .[DFA]6 | B6 B6 | e6 d6 | %23
 [EAc]2 [EGc]2 [EGc]2 [EGB]4 [EGc]2 |[M:5/4] d2- d2- d6 |] %25
V:2
 z6 z4 [D,D]2 | [D,A,]2 [D,B,]2 [D,C]2 [D,D]2 [D,D]2 [D,A,]2 | .[D,D]6 z6 | %3
 A,,2 A,,2 A,,2 A,,2 A,,2 A,,2 | D,6- D,4 D,2 | G,2 G,2 G,2 [G,D]2 [G,D]2 [G,D]2 | %6
 [D,D]2 [D,D]2 [D,D]2 [D,A,]2 [D,D]2 [D,A,D]2 | [E,A,C]4 [E,A,C]2 [E,^G,E]4 [E,B,D]2 | [A,,A,]12 | %9
 [D,A,]2 [D,A,]2 [D,A,]2 [D,^G,]2 [D,G,]2 [D,G,]2 | [D,^G,]4 D,2 D,6 | z2 D2 D2 z2 D2 A,2 | %12
 z4 C2 .D,6 | A,,2 A,,2 A,,2 A,,2 A,,2 A,,2 | A,,4 A,,2 A,,6 | A,,2 A,,2 A,,2 B,,4 C,2 | D,12 | %17
 D,2 D,2 D,2 D,2 D,2 D,2 | D,4 D,2 z2 E2 D2 | z2 D2 D2 z2 D2 A,2 | z4 C2 D,6 | %21
 G,2 G,2 G,2 F,4 F,2 | E,2 E,2 E,2 ^G,4 G,2 | A,2 A,2 A,2 A,,4 A,,2 |[M:5/4] z4 B,2 A,4 |] %25
V:3
 x12 | x12 | z2 F2 A,,2 D,4 D,2 | x12 | x12 | x12 | x12 | x12 | x12 | x12 | x12 | D,6 D,6 | %12
 A,,6 z6 | x12 | x12 | x12 | x12 | x12 | z6 .D,6 | D,6 D,6 | A,,6 z6 | x12 | x12 | x12 | %24
[M:5/4] D,2- D,2- D,6 |] %25
V:4
 x12 | x12 | x12 | x12 | x12 | x12 | x12 | x12 | x12 | F2 F2 F2 =F2 F2 F2 | =F4 [^G,F]2 [A,^FA]6 | %11
 x12 | x12 | C2 C2 C2 A,2 A,2 A,2 | .E6 z6 | x12 | x12 | d2- [FAd-]2 [FAd]2 [=F^G]2 [FG]2 [FG]2 | %18
 [=F^G]4 [FG]2 ^F2 =G2 F2 | x12 | x12 | [DG]2 [DG]2 [DG]2 [^DA]4 [DA]2 | %22
 [E^G]2 [EG]2 [EG]2 [EB]4 [EB]2 | x12 |[M:5/4] [DF]4 G2 F4 |] %25

